16x16/apps/flatseal.svg

<svg height="64" width="64" xmlns="http://www.w3.org/2000/svg" xmlns:xlink="http://www.w3.org/1999/xlink"><linearGradient id="a" gradientUnits="userSpaceOnUse" x1="29.898553" x2="29.898553" y1="62.09482" y2="2.09362"><stop offset="0" stop-color="#3889e9"/><stop offset="1" stop-color="#5ea5fb"/></linearGradient><linearGradient id="b" gradientUnits="userSpaceOnUse" x1="32.405" x2="32.405" y1="47.428" y2="16.37"><stop offset="0" stop-color="#5c5c5c"/><stop offset="1" stop-color="#8f8f8f"/></linearGradient><linearGradient id="c" gradientUnits="userSpaceOnUse" x1="32.0009138" x2="32.0009138" y1="39.0013219" y2="25.2791657"><stop offset="0" stop-color="#d28360"/><stop offset="1" stop-color="#d7ad8e"/></linearGradient><filter id="d" color-interpolation-filters="sRGB" height="1.054" width="1.054" x="-.027" y="-.027"><feGaussianBlur stdDeviation=".61875"/></filter><linearGradient id="e" gradientUnits="userSpaceOnUse" x1="4.5" x2="59.5" y1="59.48964" y2="4.48964"><stop offset="0" stop-color="#dee0e2"/><stop offset="1" stop-color="#f1f3f5" stop-opacity=".99608"/></linearGradient><rect fill="#141414" filter="url(#d)" height="55" opacity=".3" ry="15" stroke-linecap="round" stroke-width="2.7444" transform="translate(-.000228 -.000228)" width="55" x="4.5" y="4.5"/><rect fill="url(#e)" height="55.001" ry="15" stroke-linecap="round" stroke-width="2.7444" width="55.001" x="4.4996" y="4.4996"/><circle cx="32.017" cy="31.998" fill="none" r="30" stroke-width="1.5715"/><circle cx="32.017" cy="31.998" fill="url(#a)" r="0" stroke-width="1.5715"/><g stroke-width="1.4167"><path d="m32 23.5a8.5 8.5 0 0 0 -8.5 8.5 8.5 8.5 0 0 0 8.5 8.5 8.5 8.5 0 0 0 8.5-8.5 8.5 8.5 0 0 0 -8.5-8.5zm0 2.8333a5.6667 5.6667 0 0 1 5.6667 5.6667 5.6667 5.6667 0 0 1 -5.6667 5.6667 5.6667 5.6667 0 0 1 -5.6667-5.6667 5.6667 5.6667 0 0 1 5.6667-5.6667z" fill="url(#c)"/><path d="m32 15a17 17 0 0 0 -17 17 17 17 0 0 0 17 17h17.143l2.8574-3h-10.359a17 17 0 0 0 7.3594-14 17 17 0 0 0 -17-17zm0 9.916a7.0833 7.0833 0 0 1 7.084 7.084 7.0833 7.0833 0 0 1 -7.084 7.084 7.0833 7.0833 0 0 1 -7.084-7.084 7.0833 7.0833 0 0 1 7.084-7.084z" fill="url(#b)"/></g><g fill="#5e4aa6"><circle cx="-1321.4" cy="-1256" r="0"/><circle cx="-1231.9" cy="-1262" r="0"/></g></svg>

<svg height="64" width="64" xmlns="http://www.w3.org/2000/svg">
    <linearGradient id="c" gradientUnits="userSpaceOnUse" x1="29.899" x2="29.899" y1="62.095" y2="2.094">
        <stop offset="0" stop-color="#3889e9"/>
        <stop offset="1" stop-color="#5ea5fb"/>
    </linearGradient>
    <linearGradient id="e" gradientUnits="userSpaceOnUse" x1="32.405" x2="32.405" y1="47.428" y2="16.37">
        <stop offset="0" stop-color="#5c5c5c"/>
        <stop offset="1" stop-color="#8f8f8f"/>
    </linearGradient>
    <linearGradient id="d" gradientUnits="userSpaceOnUse" x1="32.001" x2="32.001" y1="39.001" y2="25.279">
        <stop offset="0" stop-color="#d28360"/>
        <stop offset="1" stop-color="#d7ad8e"/>
    </linearGradient>
    <filter id="a" color-interpolation-filters="sRGB" height="1.054" width="1.054" x="-.027" y="-.027">
        <feGaussianBlur stdDeviation=".619"/>
    </filter>
    <linearGradient id="b" gradientUnits="userSpaceOnUse" x1="4.5" x2="59.5" y1="59.49" y2="4.49">
        <stop offset="0" stop-color="#dee0e2"/>
        <stop offset="1" stop-color="#f1f3f5" stop-opacity=".996"/>
    </linearGradient>
    <rect fill="#141414" filter="url(#a)" height="55" opacity=".3" ry="15" width="55" x="4.5" y="4.5"/>
    <rect fill="url(#b)" height="55.001" ry="15" width="55.001" x="4.5" y="4.5"/>
    <circle cx="32.017" cy="31.998" fill="none" r="30"/>
    <g stroke-width="1.417">
        <path d="M32 23.5a8.5 8.5 0 0 0-8.5 8.5 8.5 8.5 0 0 0 8.5 8.5 8.5 8.5 0 0 0 8.5-8.5 8.5 8.5 0 0 0-8.5-8.5zm0 2.833A5.667 5.667 0 0 1 37.667 32 5.667 5.667 0 0 1 32 37.667 5.667 5.667 0 0 1 26.333 32 5.667 5.667 0 0 1 32 26.333z" fill="url(#d)"/>
        <path d="M32 15a17 17 0 0 0-17 17 17 17 0 0 0 17 17h17.143L52 46H41.641a17 17 0 0 0 7.36-14 17 17 0 0 0-17-17zm0 9.916A7.083 7.083 0 0 1 39.084 32 7.083 7.083 0 0 1 32 39.084 7.083 7.083 0 0 1 24.916 32 7.083 7.083 0 0 1 32 24.916z" fill="url(#e)"/>
    </g>
</svg>
